;FLAVOR:UltiGCode
;TIME:4391
;MATERIAL:4067
;MATERIAL2:0
;NOZZLE_DIAMETER:0.4
;MINX:92.898
;MINY:77.198
;MINZ:0.27
;MAXX:129.196
;MAXY:125.535
;MAXZ:18.97
;Generated with Cura_SteamEngine 5.0.0
M82 ;absolute extrusion mode
G0 F3000 Y50 ;avoid prime blob
G92 E0
G92 E0
G10
;LAYER_COUNT:188
;LAYER:0
M107
G0 F4320 X94.323 Y79.578 Z0.27
G0 X92.898 Y84.987
;TYPE:SKIRT
G11
G1 F1800 X92.926 Y84.308 E0.07339
G1 X93.034 Y83.53 E0.15822
G1 X93.262 Y82.144 E0.30992
G1 X93.419 Y81.532 E0.37816
G1 X93.701 Y80.737 E0.46926
G1 X94.022 Y80.022 E0.55391
G1 X94.323 Y79.578 E0.61184
G1 X94.718 Y79.154 E0.67442
G1 X95.32 Y78.607 E0.76227
G1 X95.967 Y78.107 E0.85058
G1 X96.441 Y77.857 E0.90846
G1 X97.397 Y77.515 E1.01811
G1 X97.938 Y77.349 E1.07923
G1 X98.462 Y77.234 E1.13717
G1 X98.997 Y77.198 E1.19508
G1 X99.608 Y77.255 E1.26135
G1 X100.264 Y77.373 E1.33334
G1 X100.555 Y77.438 E1.36554
G1 X103.426 Y78.204 E1.68645
G1 X106.133 Y78.847 E1.98695
G1 X108.783 Y79.398 E2.27927
G1 X111.482 Y79.881 E2.57539
G1 X114.15 Y80.28 E2.86674
G1 X116.853 Y80.606 E3.16078
G1 X119.578 Y80.858 E3.45633
G1 X122.311 Y81.032 E3.75209
G1 X124.281 Y81.118 E3.96506
G1 X124.925 Y81.205 E4.03524
G1 X125.925 Y81.512 E4.14822
G1 X126.699 Y81.923 E4.24286
G1 X127.308 Y82.392 E4.32588
G1 X127.93 Y83.059 E4.42438
G1 X128.37 Y83.732 E4.51121
G1 X128.731 Y84.569 E4.60966
G1 X128.934 Y85.44 E4.70625
G1 X128.986 Y86.133 E4.7813
G1 X128.943 Y86.726 E4.84552
G1 X128.75 Y87.975 E4.98201
G1 X128.371 Y90.668 E5.27572
G1 X128.068 Y93.385 E5.57097
G1 X127.842 Y96.102 E5.86542
G1 X127.692 Y98.833 E6.16082
G1 X127.621 Y101.559 E6.45532
G1 X127.626 Y104.292 E6.75049
G1 X127.707 Y106.986 E7.04157
G1 X127.868 Y109.745 E7.34005
G1 X128.102 Y112.429 E7.63102
G1 X128.413 Y115.121 E7.92369
G1 X129.03 Y119.199 E8.36913
G1 X129.144 Y119.859 E8.44146
G1 X129.196 Y120.393 E8.49941
G1 X129.168 Y120.928 E8.55727
G1 X129.061 Y121.454 E8.61524
G1 X128.715 Y122.37 E8.72099
G1 X128.352 Y123.074 E8.80653
G1 X127.891 Y123.709 E8.89128
G1 X127.281 Y124.319 E8.98445
G1 X126.713 Y124.721 E9.0596
G1 X126.06 Y125.081 E9.14013
G1 X125.371 Y125.343 E9.21974
G1 X124.325 Y125.535 E9.3346
G1 X123.407 Y125.532 E9.43374
G1 X121.59 Y125.326 E9.63124
G1 X118.851 Y125.057 E9.92847
G1 X116.172 Y124.871 E10.2185
G1 X113.439 Y124.757 E10.51392
G1 X110.709 Y124.722 E10.80879
G1 X107.979 Y124.763 E11.10366
G1 X105.25 Y124.882 E11.39867
G1 X102.518 Y125.079 E11.69449
G1 X100.407 Y125.284 E11.92355
G1 X99.532 Y125.377 E12.01859
G1 X98.996 Y125.394 E12.0765
G1 X98.279 Y125.327 E12.15428
G1 X97.637 Y125.182 E12.22536
G1 X96.881 Y124.887 E12.313
G1 X96.201 Y124.488 E12.39815
G1 X95.487 Y123.886 E12.49901
G1 X94.846 Y123.092 E12.60922
G1 X94.452 Y122.362 E12.69881
G1 X94.201 Y121.652 E12.78014
G1 X94.058 Y120.892 E12.86366
G1 X94.034 Y120.143 E12.9446
G1 X94.075 Y119.621 E13.00115
G1 X94.153 Y119.022 E13.06639
G1 X94.231 Y118.497 E13.12371
G1 X94.561 Y115.739 E13.4237
G1 X94.806 Y113.051 E13.7152
G1 X94.977 Y110.328 E14.00987
G1 X95.07 Y107.599 E14.30477
G1 X95.087 Y104.868 E14.59972
G1 X95.026 Y102.138 E14.89464
G1 X94.89 Y99.447 E15.18564
G1 X94.671 Y96.686 E15.48476
G1 X94.384 Y94.007 E15.77575
G1 X94.015 Y91.301 E16.0707
G1 X93.569 Y88.603 E16.36604
G1 X93.1 Y86.172 E16.63343
G1 X92.966 Y85.519 E16.70542
G1 X92.898 Y84.987 E16.76335
G0 F4320 X93.296 Y84.937
G1 F1800 X93.322 Y84.362 E16.82551
G1 X93.428 Y83.595 E16.90913
G1 X93.656 Y82.209 E17.06083
G1 X93.796 Y81.665 E17.1215
G1 X94.073 Y80.882 E17.2112
G1 X94.383 Y80.196 E17.2925
G1 X94.673 Y79.781 E17.34718
G1 X95.503 Y78.979 E17.47183
G1 X96.203 Y78.431 E17.56784
G1 X96.825 Y78.137 E17.64214
G1 X97.659 Y77.851 E17.73736
G1 X98.547 Y77.626 E17.8363
G1 X99.052 Y77.599 E17.89092
G1 X100.194 Y77.767 E18.01558
G1 X100.452 Y77.824 E18.04412
G1 X103.378 Y78.605 E18.37119
G1 X106.023 Y79.233 E18.66479
G1 X108.709 Y79.791 E18.96107
G1 X111.384 Y80.27 E19.25457
G1 X114.114 Y80.679 E19.5527
G1 X116.839 Y81.008 E19.84913
G1 X119.514 Y81.255 E20.13926
G1 X122.318 Y81.433 E20.4427
G1 X124.264 Y81.518 E20.65307
G1 X124.836 Y81.595 E20.7154
G1 X125.758 Y81.876 E20.8195
G1 X126.474 Y82.254 E20.90695
G1 X127.034 Y82.683 E20.98313
G1 X127.608 Y83.296 E21.07383
G1 X128.015 Y83.916 E21.15393
G1 X128.347 Y84.683 E21.24419
G1 X128.537 Y85.487 E21.33342
G1 X128.586 Y86.129 E21.40295
G1 X128.547 Y86.665 E21.46099
G1 X128.361 Y87.871 E21.59278
G1 X127.971 Y90.643 E21.89511
G1 X127.67 Y93.34 E22.18819
G1 X127.442 Y96.083 E22.48546
G1 X127.293 Y98.8 E22.77933
G1 X127.221 Y101.55 E23.07644
G1 X127.226 Y104.27 E23.3702
G1 X127.309 Y107.02 E23.66733
G1 X127.469 Y109.769 E23.96473
G1 X127.704 Y112.474 E24.25797
G1 X128.02 Y115.198 E24.55413
G1 X128.629 Y119.232 E24.99474
G1 X128.75 Y119.927 E25.07093
G1 X128.797 Y120.431 E25.1256
G1 X128.764 Y120.935 E25.18015
G1 X128.567 Y121.665 E25.26181
G1 X128.344 Y122.221 E25.3265
G1 X128.005 Y122.876 E25.40616
G1 X127.595 Y123.44 E25.48146
G1 X127.006 Y124.028 E25.57135
G1 X126.489 Y124.389 E25.63945
G1 X125.881 Y124.724 E25.71442
G1 X125.268 Y124.956 E25.78521
G1 X124.307 Y125.135 E25.89078
G1 X123.451 Y125.135 E25.98323
G1 X121.644 Y124.93 E26.17964
G1 X118.887 Y124.658 E26.47884
G1 X116.178 Y124.47 E26.77211
G1 X113.461 Y124.358 E27.0658
G1 X110.708 Y124.322 E27.36315
G1 X107.954 Y124.364 E27.66061
G1 X105.241 Y124.482 E27.95389
G1 X102.487 Y124.68 E28.25209
G1 X100.337 Y124.889 E28.48539
G1 X99.49 Y124.979 E28.57738
G1 X98.985 Y124.993 E28.63194
G1 X98.302 Y124.926 E28.70606
G1 X97.76 Y124.801 E28.76613
G1 X97.065 Y124.531 E28.84666
G1 X96.436 Y124.165 E28.92525
G1 X95.78 Y123.614 E29.01778
G1 X95.187 Y122.883 E29.11943
G1 X94.822 Y122.21 E29.20212
G1 X94.59 Y121.555 E29.27717
G1 X94.457 Y120.858 E29.3538
G1 X94.434 Y120.168 E29.42836
G1 X94.54 Y119.142 E29.53976
G1 X94.631 Y118.527 E29.6069
G1 X94.954 Y115.825 E29.9008
G1 X95.205 Y113.076 E30.19892
G1 X95.377 Y110.332 E30.49586
G1 X95.47 Y107.614 E30.78957
G1 X95.487 Y104.862 E31.08679
G1 X95.426 Y102.145 E31.3803
G1 X95.287 Y99.393 E31.6779
G1 X95.073 Y96.683 E31.97149
G1 X94.779 Y93.947 E32.26868
G1 X94.407 Y91.219 E32.56603
G1 X93.963 Y88.534 E32.85995
G1 X93.492 Y86.091 E33.12865
G1 X93.358 Y85.438 E33.20064
G1 X93.296 Y84.937 E33.25516
G10
G0 F4320 X96.732 Y82.677
;TYPE:SUPPORT
G11
G1 F1800 X97.156 Y82.677 E33.30096
G0 F4320 X98.679 Y81.226
G1 F1800 X98.679 Y80.794 E33.34761
G10
G0 F4320 X101.346 Y82.166
G11
G1 F1800 X101.346 Y82.531 E33.38703
G0 F4320 X101.346 Y83.734
G1 F1800 X101.346 Y85.241 E33.54979
G10
G0 F4320 X101.25 Y83.112
G0 X100.72 Y81.859
G0 X99.311 Y80.893
G0 X97.982 Y81.466
G0 X97.119 Y82.525
G0 X96.905 Y84.622
G0 X96.99 Y86.197
G0 X97.289 Y88.162
G0 X100.797 Y101.346
G11
G1 F1800 X99.929 Y101.346 E33.64353
G0 F4320 X101.346 Y101.623
G1 F1800 X101.346 Y102.72 E33.76201
G0 F4320 X100.883 Y104.013
G1 F1800 X99.929 Y104.013 E33.86504
G0 F4320 X99.929 Y106.68
G1 F1800 X100.401 Y106.68 E33.91602
G10
G0 F4320 X100.326 Y106.681
G0 X100.328 Y105.286
G0 X100.957 Y104.697
G0 X120.264 Y104.013
G11
G1 F1800 X123.066 Y104.013 E34.21863
G0 F4320 X123.068 Y101.346
G1 F1800 X122.215 Y101.346 E34.31076
G0 F4320 X122.682 Y101.113
G1 F1800 X122.682 Y107.736 E35.02604
G0 F4320 X122.596 Y106.68
G1 F1800 X123.063 Y106.68 E35.07648
G10
G0 F4320 X123.672 Y108.288
G0 X125.835 Y118.641
G0 X125.337 Y119.369
G0 X122.683 Y119.47
G0 X122.682 Y119.394
G11
G1 F1800 X122.682 Y121.528 E35.30695
G0 F4320 X122.015 Y120.015
G1 F1800 X125.131 Y120.015 E35.64348
G0 F4320 X125.349 Y120.394
G1 F1800 X125.349 Y121.23 E35.73376
G10
;MESH:Ring(5).stl
G0 F4320 X125.835 Y118.641
G0 X124.736 Y90.977
G0 X125.076 Y86.69
;TYPE:WALL-OUTER
G11
G1 F1576.1 X125.176 Y86.231 E35.79097
G1 F1679.2 X125.104 Y85.729 E35.8493
G1 F1674.8 X124.881 Y85.335 E35.90149
G1 F1696.8 X124.457 Y85.027 E35.96121
G1 F1719.3 X123.965 Y84.919 E36.01792
G1 F1701.2 X123.47 Y85.017 E36.07528
G1 F1692.3 X123.056 Y85.317 E36.13367
G1 F1683.5 X122.779 Y85.794 E36.19697
G1 F1483.9 X122.697 Y86.289 E36.26145
G0 F4320 X122.765 Y86.98
G0 X122.343 Y88.531
G0 X121.958 Y89.492
G0 X121.288 Y90.712
G0 X120.71 Y91.569
G0 X119.658 Y92.749
G0 X118.906 Y93.454
G0 X117.933 Y94.183
G0 X116.725 Y94.878
G0 X115.788 Y95.313
G0 X114.461 Y95.741
G0 X113.274 Y95.988
G0 X112.064 Y96.11
G0 X110.851 Y96.101
G0 X109.644 Y95.964
G0 X108.288 Y95.642
G0 X107.307 Y95.314
G0 X106.204 Y94.808
G0 X105.015 Y94.081
G0 X104.049 Y93.335
G0 X103.174 Y92.499
G0 X102.379 Y91.556
G0 X101.706 Y90.566
G0 X101.069 Y89.328
G0 X100.678 Y88.369
G0 X100.315 Y87.026
G0 X100.124 Y85.814
G0 X100.077 Y84.977
G0 X98.855 Y84.871
G0 X98.942 Y84.471
G1 F1800 X98.471 Y84.293 E36.31583
G1 X98.101 Y83.925 E36.37219
G1 F1679.2 X97.889 Y83.537 E36.42304
G1 X97.83 Y84.128 E36.49136
G1 F1800 X97.803 Y84.647 E36.54749
G1 X97.882 Y86.099 E36.70453
G1 X98.12 Y87.567 E36.86515
G1 X98.515 Y89 E37.02568
G1 X99.058 Y90.371 E37.18494
G1 X99.748 Y91.682 E37.34494
G1 X100.577 Y92.914 E37.50532
G1 X101.532 Y94.046 E37.66527
G1 X102.604 Y95.071 E37.82545
G1 X103.785 Y95.975 E37.98608
G1 X105.047 Y96.745 E38.14574
G1 X106.39 Y97.374 E38.3059
G1 X107.782 Y97.853 E38.46489
G1 X107.939 Y97.887 E38.48224
G1 X109.242 Y98.183 E38.62655
G1 X110.715 Y98.354 E38.7867
G1 X112.191 Y98.363 E38.94611
G1 X113.667 Y98.213 E39.10634
G1 X115.12 Y97.904 E39.26678
G1 X116.531 Y97.442 E39.42713
G1 X117.88 Y96.832 E39.58702
G1 X119.157 Y96.077 E39.74724
G1 X120.342 Y95.192 E39.90697
G1 X121.431 Y94.18 E40.06753
G1 X122.406 Y93.055 E40.22831
G1 X123.246 Y91.841 E40.38774
G1 X123.954 Y90.537 E40.54799
G1 X124.518 Y89.168 E40.7079
G1 X124.929 Y87.747 E40.86766
G1 X125.023 Y87.21 E40.92654
G1 F1624.1 X125.076 Y86.69 E40.98849
G1 X124.722 Y87.069 E41.04996
G1 F1800 X124.256 Y87.306 E41.10643
G1 X123.78 Y87.331 E41.15791
G1 X123.299 Y87.148 E41.21349
G1 X122.93 Y86.774 E41.27023
G1 F1549.3 X122.7 Y86.303 E41.33505
G1 F1346 X122.697 Y86.289 E41.33705
G1 F1538 X122.549 Y86.815 E41.40507
G1 F1800 X122.429 Y87.384 E41.46787
G1 X122.151 Y88.347 E41.57612
G1 X121.691 Y89.467 E41.70689
G1 X121.108 Y90.534 E41.8382
G1 X120.417 Y91.533 E41.96939
G1 X119.633 Y92.436 E42.09854
G1 X118.74 Y93.266 E42.23021
G1 X117.771 Y93.989 E42.36078
G1 X116.735 Y94.601 E42.49073
G1 X115.621 Y95.107 E42.62288
G1 X114.475 Y95.484 E42.75317
G1 X113.274 Y95.739 E42.88577
G1 X112.074 Y95.86 E43.01603
G1 X110.855 Y95.851 E43.14768
G1 X109.648 Y95.711 E43.27891
G1 X108.47 Y95.443 E43.40939
G1 X107.322 Y95.047 E43.54054
G1 X106.23 Y94.535 E43.6708
G1 X105.191 Y93.902 E43.80219
G1 X104.233 Y93.166 E43.93267
G1 X103.355 Y92.328 E44.06375
G1 X102.571 Y91.395 E44.19536
G1 X101.901 Y90.401 E44.32483
G1 X101.334 Y89.323 E44.45637
G1 X100.888 Y88.196 E44.58727
G1 X100.566 Y87.022 E44.71875
G1 X100.374 Y85.834 E44.84872
G1 X100.31 Y84.614 E44.98066
G1 X100.363 Y83.821 E45.06649
G1 F1747 X100.339 Y83.338 E45.12016
G1 X100.169 Y83.873 E45.18245
G1 F1800 X99.819 Y84.259 E45.23872
G1 X99.351 Y84.463 E45.29386
G1 X98.942 Y84.471 E45.33804
G0 F4320 X98.755 Y84.401
G0 X98.813 Y84.85
;TYPE:WALL-INNER
G1 F1800 X98.23 Y84.613 E45.40601
G1 X98.239 Y85.285 E45.47859
G1 X98.28 Y86.056 E45.56198
G1 X98.512 Y87.481 E45.7179
G1 X98.895 Y88.873 E45.87383
G1 X99.422 Y90.203 E46.02833
G1 X100.092 Y91.476 E46.1837
G1 X100.897 Y92.673 E46.33949
G1 X101.824 Y93.772 E46.49476
G1 X102.865 Y94.766 E46.65021
G1 X103.913 Y95.572 E46.793
G1 X104.116 Y95.709 E46.81945
G1 X105.237 Y96.392 E46.96122
G1 X106.429 Y96.951 E47.10341
G1 X106.658 Y97.043 E47.13006
G1 X107.892 Y97.467 E47.27098
G1 X109.309 Y97.788 E47.42789
G1 X110.739 Y97.954 E47.58337
G1 X112.172 Y97.963 E47.73814
G1 X113.605 Y97.817 E47.8937
G1 X115.016 Y97.517 E48.0495
G1 X116.386 Y97.068 E48.2052
G1 X117.695 Y96.476 E48.36036
G1 X118.935 Y95.743 E48.51593
G1 X120.086 Y94.884 E48.67104
G1 X121.143 Y93.902 E48.82686
G1 X122.089 Y92.809 E48.98297
G1 X122.905 Y91.631 E49.13774
G1 X123.592 Y90.365 E49.2933
G1 X124.14 Y89.036 E49.44856
G1 X124.538 Y87.656 E49.60367
G1 X124.507 Y87.632 E49.60791
G1 X124.203 Y87.724 E49.64221
G1 X123.661 Y87.713 E49.70076
G1 X123.024 Y87.439 E49.77565
G1 X122.872 Y87.296 E49.79819
G1 X122.529 Y88.477 E49.931
G1 X122.065 Y89.611 E50.06333
G1 X122.037 Y89.669 E50.07029
G1 X121.454 Y90.736 E50.2016
G1 X120.741 Y91.768 E50.33707
G1 X119.943 Y92.69 E50.46877
G1 X119.898 Y92.736 E50.47572
G1 X119.021 Y93.553 E50.60516
G1 X118.971 Y93.594 E50.61215
G1 X117.986 Y94.326 E50.74469
G1 X117.956 Y94.346 E50.74858
G1 X116.91 Y94.961 E50.87963
G1 X115.767 Y95.48 E51.0152
G1 X114.6 Y95.865 E51.14792
G1 X114.537 Y95.881 E51.15494
G1 X113.344 Y96.132 E51.2866
G1 X113.315 Y96.137 E51.28978
G1 X112.093 Y96.26 E51.42242
G1 X110.842 Y96.252 E51.55754
G1 X109.623 Y96.112 E51.69005
G1 X109.56 Y96.101 E51.69696
G1 X108.403 Y95.839 E51.82508
G1 X108.34 Y95.821 E51.83216
G1 X107.18 Y95.422 E51.96464
G1 X106.042 Y94.888 E52.1004
G1 X104.973 Y94.239 E52.23546
G1 X103.978 Y93.475 E52.37095
G1 X103.086 Y92.625 E52.50402
G1 X103.042 Y92.577 E52.51105
G1 X102.258 Y91.645 E52.64259
G1 X101.58 Y90.643 E52.77325
G1 X101.547 Y90.588 E52.78017
G1 X100.97 Y89.491 E52.91404
G1 X100.511 Y88.333 E53.04857
G1 X100.177 Y87.118 E53.18466
G1 X99.98 Y85.909 E53.31695
G1 X99.949 Y85.381 E53.37407
G1 X99.909 Y84.66 E53.45206
G1 X99.373 Y84.862 E53.51392
G1 X98.813 Y84.85 E53.57442
G0 F4320 X98.81 Y84.861
G0 X98.068 Y84.28
G0 X97.894 Y83.473
;TYPE:WALL-OUTER
G1 F1632.4 X97.949 Y82.949 E53.63658
G1 F1719.3 X98.215 Y82.462 E53.69906
G1 F1701.2 X98.639 Y82.16 E53.75823
G1 F1692.3 X99.145 Y82.056 E53.81723
G1 F1705.7 X99.662 Y82.191 E53.87782
G1 F1733 X100.064 Y82.504 E53.93477
G1 F1670.5 X100.285 Y82.926 E53.98982
G1 F1653.3 X100.339 Y83.338 E54.03829
G10
G0 F4320 X101.289 Y83.4
G0 X120.351 Y90.054
G0 X121.289 Y90.683
G0 X122.159 Y89.648
G11
G0 X122.414 Y89.768
;TYPE:SKIN
G1 F1800 X121.773 Y90.944 E54.1786
G1 X121.074 Y91.96 E54.30779
G1 X120.24 Y92.93 E54.44181
G1 X120.183 Y92.986 E54.45018
G1 X119.281 Y93.832 E54.57973
G1 X118.238 Y94.616 E54.71642
G1 X117.131 Y95.275 E54.85138
G1 X115.951 Y95.815 E54.98733
G1 X114.72 Y96.225 E55.12325
G1 X113.457 Y96.5 E55.25867
G1 X112.164 Y96.637 E55.39488
G1 X110.832 Y96.632 E55.53442
G1 X109.519 Y96.481 E55.67288
G1 X108.318 Y96.21 E55.80186
G1 X107.076 Y95.79 E55.93921
G1 X105.91 Y95.247 E56.07395
G1 X105.887 Y95.235 E56.07667
G1 X104.775 Y94.563 E56.21278
G1 X103.75 Y93.781 E56.34784
G1 X102.809 Y92.885 E56.48396
G1 X101.973 Y91.899 E56.61939
G1 X101.264 Y90.857 E56.75142
G1 X101.225 Y90.787 E56.75982
G1 X100.638 Y89.675 E56.89154
G1 X100.163 Y88.485 E57.02577
G1 X99.807 Y87.208 E57.16465
G1 X99.602 Y85.949 E57.29828
G1 X99.56 Y85.186 E57.37833
G1 X99.007 Y85.255 E57.43672
G1 X98.614 Y85.158 E57.47912
G1 X98.656 Y85.978 E57.56514
G1 X98.879 Y87.361 E57.71189
G1 X98.908 Y87.476 E57.72432
G1 X99.247 Y88.716 E57.85899
G1 X99.759 Y90.022 E58.00594
G1 X99.816 Y90.135 E58.0192
G1 X100.402 Y91.249 E58.15106
G1 X101.182 Y92.412 E58.29776
G1 X102.079 Y93.484 E58.4442
G1 X103.114 Y94.476 E58.59438
G1 X104.198 Y95.308 E58.73754
G1 X105.417 Y96.058 E58.88747
G1 X106.651 Y96.634 E59.03014
G1 X107.962 Y97.088 E59.17548
G1 X109.373 Y97.411 E59.32712
G1 X110.727 Y97.569 E59.46993
G1 X112.119 Y97.583 E59.61576
G1 X113.483 Y97.446 E59.75937
G1 X113.65 Y97.414 E59.77718
G1 X114.882 Y97.156 E59.90905
G1 X116.249 Y96.713 E60.05959
G1 X117.485 Y96.154 E60.2017
G1 X118.693 Y95.445 E60.34843
G1 X119.815 Y94.612 E60.49483
G1 X120.844 Y93.66 E60.64168
G1 X121.764 Y92.603 E60.78848
G1 X122.579 Y91.431 E60.93803
G1 X123.23 Y90.232 E61.08096
G1 X123.765 Y88.944 E61.22707
G1 X124.015 Y88.097 E61.31958
G1 X123.512 Y88.064 E61.37239
G1 X123.097 Y87.884 E61.41978
G1 X122.893 Y88.594 E61.49717
G1 X122.414 Y89.768 E61.63
G0 F4320 X122.159 Y89.648
G0 X122.966 Y87.603
G0 X124.286 Y87.886
G0 X124.126 Y88.722
G0 X123.66 Y88.587
G1 F1800 X123.234 Y88.162 E61.69304
G0 F4320 X123.1 Y88.594
G1 F1800 X123.519 Y89.012 E61.75504
G0 F4320 X123.353 Y89.412
G1 F1800 X122.942 Y89.001 E61.81593
G0 F4320 X122.778 Y89.403
G1 F1800 X123.186 Y89.811 E61.87638
G0 F4320 X123.016 Y90.206
G1 F1800 X122.615 Y89.805 E61.93579
G0 F4320 X122.419 Y90.175
G1 F1800 X122.815 Y90.571 E61.99446
